packages/components/Atoms/Icon/assets/img/rpl_icon_blank_solid.svg

<svg width="14" height="21" viewBox="0 0 14 21" overflow="visible" xmlns="http://www.w3.org/2000/svg">
  <path fill-rule="evenodd" clip-rule="evenodd" d="M7 0.0025L1 0C0.447 0 0 0.447 0 1V19C0 19.553 0.447 20 1 20L13 20.0025C13.553 20.0025 14 19.5555 14 19.0025V7.0025H8C7.447 7.0025 7 6.5555 7 6.0025V0.0025Z"
    fill="inherit" />
  <path fill-rule="evenodd" clip-rule="evenodd" d="M9.0029 0.00250244H8.9999V5.0025H13.9999V4.9995L9.0029 0.00250244Z" fill="inherit"
  />
</svg>

<svg width="14" height="21" overflow="visible" xmlns="http://www.w3.org/2000/svg"><path fill-rule="evenodd" clip-rule="evenodd" d="M7 .003L1 0a1 1 0 00-1 1v18a1 1 0 001 1l12 .003a1 1 0 001-1v-12H8a1 1 0 01-1-1v-6z" fill="inherit"/><path fill-rule="evenodd" clip-rule="evenodd" d="M9.003.003H9v5h5V5L9.003.003z" fill="inherit"/></svg>
